X: 1
T:Teetotaler's Reel
M:2/4
L:1/16
R:reel
B:Ryan's Mammoth Collection
Z:Contributed by Ray Davies,  ray:davies99.freeserve.co.uk
K:G
u((3DEF)|.G2{A}.G.F GABc|(dB).g.e dBAc|(BE){F}.E.D EFGA|(BG)(AF) GFED|
DG{A}GF GABc|(dB).g.e dBAc|(BE){F}.E.D EFGA|(Bd).A.F G2::
B2|(Be).e.d e3f|(ge).a.f gfed|(Bd).d.e d3e|(fd).a.f gfed|
(Be).e.d e3f|(ge).a.f gfed|(BE){F}.E.D EFGA|(Bd).A.F G2:|
